icon/pk/rabbit-zodiac.svg

<svg viewBox="0 0 48 48" fill="none" xmlns="http://www.w3.org/2000/svg" height="1em" width="1em">
  <path d="M6 44V24C6.16667 22.3334 7.2 17.1998 12 13.9998L8 9.99974C6 7.54786 7.5 2.00024 13 3.99998C15 5.00024 16 6.50024 17.5 8.00024L24 15.0002C24.6667 16.0002 26.5 17.809 26 22.4522" stroke="black" stroke-width="4" stroke-linecap="round" stroke-linejoin="round"/>
  <path d="M16 25.0005C21 25.0005 31 28.0005 34 36.0005C34.6667 38.2624 35.5 41.9995 36 43.9995" stroke="black" stroke-width="4" stroke-linecap="round" stroke-linejoin="round"/>
  <path d="M18 43.9996C18 40.1092 20.8 31.9578 32 33.4517" stroke="black" stroke-width="4" stroke-linecap="round" stroke-linejoin="round"/>
  <circle cx="40.5" cy="41.4518" r="2" fill="black"/>
</svg>

<svg width="48" height="48" fill="none" xmlns="http://www.w3.org/2000/svg"><path d="M6 44V24c.167-1.667 1.2-6.8 6-10l-4-4c-2-2.452-.5-8 5-6 2 1 3 2.5 4.5 4l6.5 7c.667 1 2.5 2.809 2 7.452" stroke="#000" stroke-width="4" stroke-linecap="round" stroke-linejoin="round"/><path d="M16 25c5 0 15 3 18 11 .667 2.262 1.5 6 2 8" stroke="#000" stroke-width="4" stroke-linecap="round" stroke-linejoin="round"/><path d="M18 44c0-3.89 2.8-12.042 14-10.548" stroke="#000" stroke-width="4" stroke-linecap="round" stroke-linejoin="round"/><circle cx="40.5" cy="41.452" r="2" fill="#000"/></svg>
